images/50867364.svg

<?xml version="1.0" encoding="UTF-8"?>
<svg xmlns="http://www.w3.org/2000/svg" xmlns:xlink="http://www.w3.org/1999/xlink" width="300pt" height="300pt" viewBox="0 0 300 300" version="1.1">
<defs>
<g>
<symbol overflow="visible" id="glyph0-0">
<path style="stroke:none;" d="M 0.453125 1.59375 L 0.453125 -6.34375 L 4.953125 -6.34375 L 4.953125 1.59375 Z M 0.953125 1.09375 L 4.453125 1.09375 L 4.453125 -5.84375 L 0.953125 -5.84375 Z M 0.953125 1.09375 "/>
</symbol>
<symbol overflow="visible" id="glyph0-1">
<path style="stroke:none;" d="M 0.890625 -6.5625 L 4.65625 -6.5625 L 4.65625 -5.8125 L 1.765625 -5.8125 L 1.765625 -3.875 L 4.375 -3.875 L 4.375 -3.140625 L 1.765625 -3.140625 L 1.765625 0 L 0.890625 0 Z M 0.890625 -6.5625 "/>
</symbol>
<symbol overflow="visible" id="glyph0-2">
<path style="stroke:none;" d="M 0.890625 -6.5625 L 2.078125 -6.5625 L 4.984375 -1.078125 L 4.984375 -6.5625 L 5.84375 -6.5625 L 5.84375 0 L 4.65625 0 L 1.75 -5.484375 L 1.75 0 L 0.890625 0 Z M 0.890625 -6.5625 "/>
</symbol>
<symbol overflow="visible" id="glyph0-3">
<path style="stroke:none;" d="M 3.546875 -5.953125 C 2.898438 -5.953125 2.382812 -5.710938 2 -5.234375 C 1.625 -4.753906 1.4375 -4.101562 1.4375 -3.28125 C 1.4375 -2.445312 1.625 -1.789062 2 -1.3125 C 2.382812 -0.832031 2.898438 -0.59375 3.546875 -0.59375 C 4.191406 -0.59375 4.703125 -0.832031 5.078125 -1.3125 C 5.453125 -1.789062 5.640625 -2.445312 5.640625 -3.28125 C 5.640625 -4.101562 5.453125 -4.753906 5.078125 -5.234375 C 4.703125 -5.710938 4.191406 -5.953125 3.546875 -5.953125 Z M 3.546875 -6.6875 C 4.460938 -6.6875 5.195312 -6.375 5.75 -5.75 C 6.300781 -5.132812 6.578125 -4.3125 6.578125 -3.28125 C 6.578125 -2.238281 6.300781 -1.410156 5.75 -0.796875 C 5.195312 -0.179688 4.460938 0.125 3.546875 0.125 C 2.617188 0.125 1.878906 -0.179688 1.328125 -0.796875 C 0.773438 -1.410156 0.5 -2.238281 0.5 -3.28125 C 0.5 -4.3125 0.773438 -5.132812 1.328125 -5.75 C 1.878906 -6.375 2.617188 -6.6875 3.546875 -6.6875 Z M 3.546875 -6.6875 "/>
</symbol>
</g>
</defs>
<g id="surface14889">
<rect x="0" y="0" width="300" height="300" style="fill:rgb(100%,100%,100%);fill-opacity:1;stroke:none;"/>
<path style="fill:none;stroke-width:1.2;stroke-linecap:butt;stroke-linejoin:miter;stroke:rgb(20%,80%,80%);stroke-opacity:1;stroke-miterlimit:10;" d="M 264.75 139.609375 L 254.152344 138.378906 "/>
<path style="fill:none;stroke-width:1.2;stroke-linecap:butt;stroke-linejoin:miter;stroke:rgb(0%,0%,0%);stroke-opacity:1;stroke-miterlimit:10;" d="M 254.152344 138.378906 L 243.554688 137.148438 "/>
<path style=" stroke:none;fill-rule:nonzero;fill:rgb(100%,100%,100%);fill-opacity:1;" d="M 261.75 134.109375 L 267.75 134.109375 L 267.75 145.109375 L 261.75 145.109375 Z M 261.75 134.109375 "/>
<g style="fill:rgb(20%,80%,80%);fill-opacity:1;">
  <use xlink:href="#glyph0-1" x="261.75" y="142.772461"/>
</g>
<path style="fill:none;stroke-width:1.2;stroke-linecap:butt;stroke-linejoin:miter;stroke:rgb(0%,0%,0%);stroke-opacity:1;stroke-miterlimit:10;" d="M 243.554688 137.148438 L 230.824219 154.273438 "/>
<path style="fill:none;stroke-width:1.2;stroke-linecap:butt;stroke-linejoin:miter;stroke:rgb(0%,0%,0%);stroke-opacity:1;stroke-miterlimit:10;" d="M 238.25 135.867188 L 228.070312 149.566406 "/>
<path style="fill:none;stroke-width:1.2;stroke-linecap:butt;stroke-linejoin:miter;stroke:rgb(0%,0%,0%);stroke-opacity:1;stroke-miterlimit:10;" d="M 235.085938 117.5625 L 243.554688 137.148438 "/>
<path style="fill:none;stroke-width:1.2;stroke-linecap:butt;stroke-linejoin:miter;stroke:rgb(0%,0%,0%);stroke-opacity:1;stroke-miterlimit:10;" d="M 230.824219 154.273438 L 209.628906 151.8125 "/>
<path style="fill:none;stroke-width:1.2;stroke-linecap:butt;stroke-linejoin:miter;stroke:rgb(0%,0%,0%);stroke-opacity:1;stroke-miterlimit:10;" d="M 209.628906 151.8125 L 201.164062 132.226562 "/>
<path style="fill:none;stroke-width:1.2;stroke-linecap:butt;stroke-linejoin:miter;stroke:rgb(0%,0%,0%);stroke-opacity:1;stroke-miterlimit:10;" d="M 213.390625 147.863281 L 206.617188 132.195312 "/>
<path style="fill:none;stroke-width:1.2;stroke-linecap:butt;stroke-linejoin:miter;stroke:rgb(0%,0%,0%);stroke-opacity:1;stroke-miterlimit:10;" d="M 201.164062 132.226562 L 213.890625 115.101562 "/>
<path style="fill:none;stroke-width:1.2;stroke-linecap:butt;stroke-linejoin:miter;stroke:rgb(0%,0%,0%);stroke-opacity:1;stroke-miterlimit:10;" d="M 201.164062 132.226562 L 179.96875 129.765625 "/>
<path style="fill:none;stroke-width:1.2;stroke-linecap:butt;stroke-linejoin:miter;stroke:rgb(0%,0%,0%);stroke-opacity:1;stroke-miterlimit:10;" d="M 213.890625 115.101562 L 235.085938 117.5625 "/>
<path style="fill:none;stroke-width:1.2;stroke-linecap:butt;stroke-linejoin:miter;stroke:rgb(0%,0%,0%);stroke-opacity:1;stroke-miterlimit:10;" d="M 215.433594 120.335938 L 232.390625 122.304688 "/>
<path style="fill:none;stroke-width:1.2;stroke-linecap:butt;stroke-linejoin:miter;stroke:rgb(0%,0%,0%);stroke-opacity:1;stroke-miterlimit:10;" d="M 179.96875 129.765625 L 165.519531 145.46875 "/>
<path style="fill:none;stroke-width:1.2;stroke-linecap:butt;stroke-linejoin:miter;stroke:rgb(0%,0%,0%);stroke-opacity:1;stroke-miterlimit:10;" d="M 174.828125 127.9375 L 163.269531 140.5 "/>
<path style="fill:none;stroke-width:1.2;stroke-linecap:butt;stroke-linejoin:miter;stroke:rgb(0%,0%,0%);stroke-opacity:1;stroke-miterlimit:10;" d="M 169.5 111.171875 L 179.96875 129.765625 "/>
<path style="fill:none;stroke-width:1.2;stroke-linecap:butt;stroke-linejoin:miter;stroke:rgb(0%,0%,0%);stroke-opacity:1;stroke-miterlimit:10;" d="M 165.519531 145.46875 L 155.820312 141.023438 "/>
<path style="fill:none;stroke-width:1.2;stroke-linecap:butt;stroke-linejoin:miter;stroke:rgb(0%,0%,100%);stroke-opacity:1;stroke-miterlimit:10;" d="M 155.820312 141.023438 L 146.121094 136.578125 "/>
<path style="fill:none;stroke-width:1.2;stroke-linecap:butt;stroke-linejoin:miter;stroke:rgb(0%,0%,0%);stroke-opacity:1;stroke-miterlimit:10;" d="M 165.519531 145.46875 L 169.726562 166.386719 "/>
<path style="fill:none;stroke-width:1.2;stroke-linecap:butt;stroke-linejoin:miter;stroke:rgb(0%,0%,100%);stroke-opacity:1;stroke-miterlimit:10;" d="M 146.121094 136.578125 L 147.351562 125.980469 "/>
<path style="fill:none;stroke-width:1.2;stroke-linecap:butt;stroke-linejoin:miter;stroke:rgb(100%,0%,0%);stroke-opacity:1;stroke-miterlimit:10;" d="M 147.351562 125.980469 L 148.582031 115.382812 "/>
<path style="fill:none;stroke-width:1.2;stroke-linecap:butt;stroke-linejoin:miter;stroke:rgb(0%,0%,100%);stroke-opacity:1;stroke-miterlimit:10;" d="M 146.121094 136.578125 L 136.824219 141.8125 "/>
<path style="fill:none;stroke-width:1.2;stroke-linecap:butt;stroke-linejoin:miter;stroke:rgb(0%,0%,0%);stroke-opacity:1;stroke-miterlimit:10;" d="M 136.824219 141.8125 L 127.527344 147.046875 "/>
<path style=" stroke:none;fill-rule:nonzero;fill:rgb(100%,100%,100%);fill-opacity:1;" d="M 143.121094 131.078125 L 150.121094 131.078125 L 150.121094 142.078125 L 143.121094 142.078125 Z M 143.121094 131.078125 "/>
<g style="fill:rgb(0%,0%,100%);fill-opacity:1;">
  <use xlink:href="#glyph0-2" x="143.121094" y="139.741211"/>
</g>
<path style="fill:none;stroke-width:1.2;stroke-linecap:butt;stroke-linejoin:miter;stroke:rgb(100%,0%,0%);stroke-opacity:1;stroke-miterlimit:10;" d="M 148.582031 115.382812 L 159.039062 113.277344 "/>
<path style="fill:none;stroke-width:1.2;stroke-linecap:butt;stroke-linejoin:miter;stroke:rgb(0%,0%,0%);stroke-opacity:1;stroke-miterlimit:10;" d="M 159.039062 113.277344 L 169.5 111.171875 "/>
<path style=" stroke:none;fill-rule:nonzero;fill:rgb(100%,100%,100%);fill-opacity:1;" d="M 144.582031 109.882812 L 152.582031 109.882812 L 152.582031 120.882812 L 144.582031 120.882812 Z M 144.582031 109.882812 "/>
<g style="fill:rgb(100%,0%,0%);fill-opacity:1;">
  <use xlink:href="#glyph0-3" x="144.582031" y="118.545898"/>
</g>
<path style="fill:none;stroke-width:1.2;stroke-linecap:butt;stroke-linejoin:miter;stroke:rgb(0%,0%,0%);stroke-opacity:1;stroke-miterlimit:10;" d="M 171.78125 112.21875 L 176.226562 102.519531 "/>
<path style="fill:none;stroke-width:1.2;stroke-linecap:butt;stroke-linejoin:miter;stroke:rgb(100%,0%,0%);stroke-opacity:1;stroke-miterlimit:10;" d="M 176.226562 102.519531 L 180.671875 92.820312 "/>
<path style="fill:none;stroke-width:1.2;stroke-linecap:butt;stroke-linejoin:miter;stroke:rgb(0%,0%,0%);stroke-opacity:1;stroke-miterlimit:10;" d="M 167.214844 110.128906 L 171.660156 100.429688 "/>
<path style="fill:none;stroke-width:1.2;stroke-linecap:butt;stroke-linejoin:miter;stroke:rgb(100%,0%,0%);stroke-opacity:1;stroke-miterlimit:10;" d="M 171.660156 100.429688 L 176.105469 90.730469 "/>
<path style=" stroke:none;fill-rule:nonzero;fill:rgb(100%,100%,100%);fill-opacity:1;" d="M 174.390625 86.273438 L 182.390625 86.273438 L 182.390625 97.273438 L 174.390625 97.273438 Z M 174.390625 86.273438 "/>
<g style="fill:rgb(100%,0%,0%);fill-opacity:1;">
  <use xlink:href="#glyph0-3" x="174.390625" y="94.936523"/>
</g>
<path style="fill:none;stroke-width:1.2;stroke-linecap:butt;stroke-linejoin:miter;stroke:rgb(0%,0%,0%);stroke-opacity:1;stroke-miterlimit:10;" d="M 127.527344 147.046875 L 118.34375 141.613281 "/>
<path style="fill:none;stroke-width:1.2;stroke-linecap:butt;stroke-linejoin:miter;stroke:rgb(100%,0%,0%);stroke-opacity:1;stroke-miterlimit:10;" d="M 118.34375 141.613281 L 109.164062 136.179688 "/>
<path style="fill:none;stroke-width:1.2;stroke-linecap:butt;stroke-linejoin:miter;stroke:rgb(100%,0%,0%);stroke-opacity:1;stroke-miterlimit:10;" d="M 109.164062 136.179688 L 99.867188 141.410156 "/>
<path style="fill:none;stroke-width:1.2;stroke-linecap:butt;stroke-linejoin:miter;stroke:rgb(0%,0%,0%);stroke-opacity:1;stroke-miterlimit:10;" d="M 99.867188 141.410156 L 90.570312 146.644531 "/>
<path style=" stroke:none;fill-rule:nonzero;fill:rgb(100%,100%,100%);fill-opacity:1;" d="M 105.164062 130.679688 L 113.164062 130.679688 L 113.164062 141.679688 L 105.164062 141.679688 Z M 105.164062 130.679688 "/>
<g style="fill:rgb(100%,0%,0%);fill-opacity:1;">
  <use xlink:href="#glyph0-3" x="105.164062" y="139.342773"/>
</g>
<path style="fill:none;stroke-width:1.2;stroke-linecap:butt;stroke-linejoin:miter;stroke:rgb(0%,0%,0%);stroke-opacity:1;stroke-miterlimit:10;" d="M 90.570312 146.644531 L 72.207031 135.777344 "/>
<path style="fill:none;stroke-width:1.2;stroke-linecap:butt;stroke-linejoin:miter;stroke:rgb(0%,0%,0%);stroke-opacity:1;stroke-miterlimit:10;" d="M 72.207031 135.777344 L 62.910156 141.011719 "/>
<path style="fill:none;stroke-width:1.2;stroke-linecap:butt;stroke-linejoin:miter;stroke:rgb(100%,0%,0%);stroke-opacity:1;stroke-miterlimit:10;" d="M 62.910156 141.011719 L 53.613281 146.246094 "/>
<path style="fill:none;stroke-width:1.2;stroke-linecap:butt;stroke-linejoin:miter;stroke:rgb(100%,0%,0%);stroke-opacity:1;stroke-miterlimit:10;" d="M 53.613281 146.246094 L 44.429688 140.808594 "/>
<path style="fill:none;stroke-width:1.2;stroke-linecap:butt;stroke-linejoin:miter;stroke:rgb(0%,0%,0%);stroke-opacity:1;stroke-miterlimit:10;" d="M 44.429688 140.808594 L 35.25 135.375 "/>
<path style=" stroke:none;fill-rule:nonzero;fill:rgb(100%,100%,100%);fill-opacity:1;" d="M 49.613281 140.746094 L 57.613281 140.746094 L 57.613281 151.746094 L 49.613281 151.746094 Z M 49.613281 140.746094 "/>
<g style="fill:rgb(100%,0%,0%);fill-opacity:1;">
  <use xlink:href="#glyph0-3" x="49.613281" y="149.40918"/>
</g>
<path style="fill:none;stroke-width:1.2;stroke-linecap:butt;stroke-linejoin:miter;stroke:rgb(0%,0%,0%);stroke-opacity:1;stroke-miterlimit:10;" d="M 169.726562 166.386719 L 153.714844 180.492188 "/>
<path style="fill:none;stroke-width:1.2;stroke-linecap:butt;stroke-linejoin:miter;stroke:rgb(0%,0%,0%);stroke-opacity:1;stroke-miterlimit:10;" d="M 171.445312 171.566406 L 158.636719 182.847656 "/>
<path style="fill:none;stroke-width:1.2;stroke-linecap:butt;stroke-linejoin:miter;stroke:rgb(0%,0%,0%);stroke-opacity:1;stroke-miterlimit:10;" d="M 189.949219 173.199219 L 169.726562 166.386719 "/>
<path style="fill:none;stroke-width:1.2;stroke-linecap:butt;stroke-linejoin:miter;stroke:rgb(0%,0%,0%);stroke-opacity:1;stroke-miterlimit:10;" d="M 153.714844 180.492188 L 157.925781 201.410156 "/>
<path style="fill:none;stroke-width:1.2;stroke-linecap:butt;stroke-linejoin:miter;stroke:rgb(0%,0%,0%);stroke-opacity:1;stroke-miterlimit:10;" d="M 157.925781 201.410156 L 168.035156 204.816406 "/>
<path style="fill:none;stroke-width:1.2;stroke-linecap:butt;stroke-linejoin:miter;stroke:rgb(0%,0%,100%);stroke-opacity:1;stroke-miterlimit:10;" d="M 168.035156 204.816406 L 178.148438 208.226562 "/>
<path style="fill:none;stroke-width:1.2;stroke-linecap:butt;stroke-linejoin:miter;stroke:rgb(0%,0%,0%);stroke-opacity:1;stroke-miterlimit:10;" d="M 161.550781 197.335938 L 169.640625 200.058594 "/>
<path style="fill:none;stroke-width:1.2;stroke-linecap:butt;stroke-linejoin:miter;stroke:rgb(0%,0%,100%);stroke-opacity:1;stroke-miterlimit:10;" d="M 169.640625 200.058594 L 177.726562 202.785156 "/>
<path style="fill:none;stroke-width:1.2;stroke-linecap:butt;stroke-linejoin:miter;stroke:rgb(0%,0%,100%);stroke-opacity:1;stroke-miterlimit:10;" d="M 178.148438 208.226562 L 186.152344 201.171875 "/>
<path style="fill:none;stroke-width:1.2;stroke-linecap:butt;stroke-linejoin:miter;stroke:rgb(0%,0%,0%);stroke-opacity:1;stroke-miterlimit:10;" d="M 186.152344 201.171875 L 194.160156 194.121094 "/>
<path style=" stroke:none;fill-rule:nonzero;fill:rgb(100%,100%,100%);fill-opacity:1;" d="M 175.148438 202.726562 L 182.148438 202.726562 L 182.148438 213.726562 L 175.148438 213.726562 Z M 175.148438 202.726562 "/>
<g style="fill:rgb(0%,0%,100%);fill-opacity:1;">
  <use xlink:href="#glyph0-2" x="175.148438" y="211.389648"/>
</g>
<path style="fill:none;stroke-width:1.2;stroke-linecap:butt;stroke-linejoin:miter;stroke:rgb(0%,0%,0%);stroke-opacity:1;stroke-miterlimit:10;" d="M 194.160156 194.121094 L 189.949219 173.199219 "/>
<path style="fill:none;stroke-width:1.2;stroke-linecap:butt;stroke-linejoin:miter;stroke:rgb(0%,0%,0%);stroke-opacity:1;stroke-miterlimit:10;" d="M 188.816406 193.019531 L 185.449219 176.285156 "/>
</g>
</svg>

<svg xmlns="http://www.w3.org/2000/svg" xmlns:xlink="http://www.w3.org/1999/xlink" width="300pt" height="300pt" viewBox="0 0 300 300"><defs><symbol overflow="visible"><path d="M.453 1.594v-7.938h4.5v7.938zm.5-.5h3.5v-6.938h-3.5zm0 0"/></symbol><symbol overflow="visible" id="a"><path d="M.89-6.563h3.766v.75h-2.89v1.938h2.61v.734h-2.61V0H.89zm0 0"/></symbol><symbol overflow="visible" id="b"><path d="M.89-6.563H2.08l2.906 5.485v-5.484h.86V0H4.656L1.75-5.484V0H.89zm0 0"/></symbol><symbol overflow="visible" id="c"><path d="M3.547-5.953c-.65 0-1.164.242-1.547.72-.375.48-.563 1.13-.563 1.952 0 .835.188 1.49.563 1.967.383.48.898.72 1.547.72.644 0 1.156-.24 1.53-.72.376-.476.564-1.132.564-1.968 0-.822-.187-1.474-.562-1.954-.375-.477-.887-.72-1.53-.72zm0-.734c.914 0 1.648.312 2.203.937.55.617.828 1.438.828 2.47 0 1.042-.277 1.87-.828 2.483-.555.617-1.29.922-2.203.922-.93 0-1.668-.305-2.22-.922C.774-1.41.5-2.237.5-3.28c0-1.033.273-1.853.828-2.47.55-.625 1.29-.938 2.22-.938zm0 0"/></symbol></defs><g><path fill="#fff" d="M0 0h300v300H0z"/><path d="M264.75 139.61l-10.598-1.23" stroke-width="1.2" stroke="#3cc" stroke-miterlimit="10" fill="none"/><path d="M254.152 138.38l-10.597-1.232" stroke-width="1.2" stroke="#000" stroke-miterlimit="10" fill="none"/><path d="M261.75 134.11h6v11h-6zm0 0" fill="#fff"/><use xlink:href="#a" x="261.75" y="142.772" fill="#3cc"/><path d="M243.555 137.148l-12.73 17.125M238.25 135.867l-10.18 13.7M235.086 117.563l8.47 19.585M230.824 154.273l-21.195-2.46M209.63 151.813l-8.466-19.586M213.39 147.863l-6.773-15.668M201.164 132.227l12.727-17.125M201.164 132.227l-21.195-2.46M213.89 115.102l21.196 2.46M215.434 120.336l16.957 1.97M179.97 129.766l-14.45 15.703M174.828 127.938L163.27 140.5M169.5 111.172l10.47 18.594M165.52 145.47l-9.7-4.447" stroke-width="1.2" stroke="#000" stroke-miterlimit="10" fill="none"/><path d="M155.82 141.023l-9.7-4.445" stroke-width="1.2" stroke="#00f" stroke-miterlimit="10" fill="none"/><path d="M165.52 145.47l4.207 20.917" stroke-width="1.2" stroke="#000" stroke-miterlimit="10" fill="none"/><path d="M146.12 136.578l1.232-10.598" stroke-width="1.2" stroke="#00f" stroke-miterlimit="10" fill="none"/><path d="M147.352 125.98l1.23-10.597" stroke-width="1.2" stroke="#f00" stroke-miterlimit="10" fill="none"/><path d="M146.12 136.578l-9.296 5.234" stroke-width="1.2" stroke="#00f" stroke-miterlimit="10" fill="none"/><path d="M136.824 141.813l-9.297 5.234" stroke-width="1.2" stroke="#000" stroke-miterlimit="10" fill="none"/><path d="M143.12 131.078h7v11h-7zm0 0" fill="#fff"/><use xlink:href="#b" x="143.121" y="139.741" fill="#00f"/><path d="M148.582 115.383l10.457-2.106" stroke-width="1.2" stroke="#f00" stroke-miterlimit="10" fill="none"/><path d="M159.04 113.277l10.46-2.105" stroke-width="1.2" stroke="#000" stroke-miterlimit="10" fill="none"/><path d="M144.582 109.883h8v11h-8zm0 0" fill="#fff"/><use xlink:href="#c" x="144.582" y="118.546" fill="#f00"/><path d="M171.78 112.22l4.447-9.7" stroke-width="1.2" stroke="#000" stroke-miterlimit="10" fill="none"/><path d="M176.227 102.52l4.445-9.7" stroke-width="1.2" stroke="#f00" stroke-miterlimit="10" fill="none"/><path d="M167.215 110.13l4.445-9.7" stroke-width="1.2" stroke="#000" stroke-miterlimit="10" fill="none"/><path d="M171.66 100.43l4.445-9.7" stroke-width="1.2" stroke="#f00" stroke-miterlimit="10" fill="none"/><path d="M174.39 86.273h8v11h-8zm0 0" fill="#fff"/><use xlink:href="#c" x="174.391" y="94.937" fill="#f00"/><path d="M127.527 147.047l-9.183-5.434" stroke-width="1.2" stroke="#000" stroke-miterlimit="10" fill="none"/><path d="M118.344 141.613l-9.18-5.433M109.164 136.18l-9.297 5.23" stroke-width="1.2" stroke="#f00" stroke-miterlimit="10" fill="none"/><path d="M99.867 141.41l-9.297 5.235" stroke-width="1.2" stroke="#000" stroke-miterlimit="10" fill="none"/><path d="M105.164 130.68h8v11h-8zm0 0" fill="#fff"/><use xlink:href="#c" x="105.164" y="139.343" fill="#f00"/><path d="M90.57 146.645l-18.363-10.868M72.207 135.777l-9.297 5.235" stroke-width="1.2" stroke="#000" stroke-miterlimit="10" fill="none"/><path d="M62.91 141.012l-9.297 5.234M53.613 146.246l-9.183-5.437" stroke-width="1.2" stroke="#f00" stroke-miterlimit="10" fill="none"/><path d="M44.43 140.81l-9.18-5.435" stroke-width="1.2" stroke="#000" stroke-miterlimit="10" fill="none"/><path d="M49.613 140.746h8v11h-8zm0 0" fill="#fff"/><use xlink:href="#c" x="49.613" y="149.409" fill="#f00"/><path d="M169.727 166.387l-16.012 14.105M171.445 171.566l-12.808 11.282M189.95 173.2l-20.223-6.813M153.715 180.492l4.21 20.918M157.926 201.41l10.11 3.406" stroke-width="1.2" stroke="#000" stroke-miterlimit="10" fill="none"/><path d="M168.035 204.816l10.113 3.41" stroke-width="1.2" stroke="#00f" stroke-miterlimit="10" fill="none"/><path d="M161.55 197.336l8.09 2.723" stroke-width="1.2" stroke="#000" stroke-miterlimit="10" fill="none"/><path d="M169.64 200.06l8.087 2.725M178.148 208.227l8.004-7.055" stroke-width="1.2" stroke="#00f" stroke-miterlimit="10" fill="none"/><path d="M186.152 201.172l8.008-7.05" stroke-width="1.2" stroke="#000" stroke-miterlimit="10" fill="none"/><path d="M175.148 202.727h7v11h-7zm0 0" fill="#fff"/><use xlink:href="#b" x="175.148" y="211.39" fill="#00f"/><path d="M194.16 194.12l-4.21-20.92M188.816 193.02l-3.367-16.735" stroke-width="1.2" stroke="#000" stroke-miterlimit="10" fill="none"/></g></svg>
